; generated by Slic3r 1.2.9 on 2017-11-02 at 14:15:17

; external perimeters extrusion width = 0.40mm
; perimeters extrusion width = 0.48mm
; infill extrusion width = 0.48mm
; solid infill extrusion width = 0.48mm
; top infill extrusion width = 0.48mm
; support material extrusion width = 0.40mm

M107
M104 S200 ; set temperature
G28 ; home all axes

M109 S200 ; wait for temperature to be reached
G21 ; set units to millimeters
G90 ; use absolute coordinates
M82 ; use absolute distances for extrusion
G92 E0
G1 Z0.350 F4800.000
G1 E-2.00000 F2400.00000
G92 E0
G1 X54.577 Y46.135 F4800.000
G1 E2.00000 F2400.00000
G1 X57.120 Y43.686 E2.32097 F1800.000
G1 X60.147 Y41.871 E2.64194
G1 X63.504 Y40.781 E2.96291
G1 X66.618 Y40.468 E3.24744
G1 X133.667 Y40.468 E9.34420
G1 X137.174 Y40.867 E9.66517
G1 X140.503 Y42.042 E9.98613 F1800.000
G1 X143.482 Y43.935 E10.30710
G1 X145.961 Y46.449 E10.62807
G1 X147.138 Y48.176 E10.81816
G1 X147.335 Y48.511 E10.85346
G1 X148.768 Y51.737 E11.17443
G1 X149.489 Y56.427 E11.60597
G1 X149.489 Y143.673 E19.53918
G1 X149.090 Y147.180 E19.86015
G1 X147.832 Y150.674 E20.19779
G1 X147.715 Y150.908 E20.22161
G1 X145.787 Y153.865 E20.54258
G1 X143.245 Y156.314 E20.86355
G1 X140.217 Y158.129 E21.18452
G1 X136.860 Y159.219 E21.50548
G1 X133.746 Y159.532 E21.79002
G1 X66.333 Y159.532 E27.91992
G1 X62.826 Y159.133 E28.24088
G1 X59.497 Y157.958 E28.56185
G1 X56.518 Y156.065 E28.88282
G1 X54.039 Y153.551 E29.20379
G1 X52.857 Y151.816 E29.39474
G1 X52.661 Y151.481 E29.43005
G1 X51.229 Y148.254 E29.75101
G1 X50.511 Y143.572 E30.18171
G1 X50.511 Y57.054 E38.04882
G1 X50.910 Y53.546 E38.36978
G1 X52.168 Y50.053 E38.70743
G1 X52.649 Y49.092 E38.80517
G1 X54.544 Y46.185 E39.12068
G1 E37.12068 F2400.00000
G92 E0
G1 X66.618 Y56.093 F4800.000
G1 E2.00000 F2400.00000
G1 X66.136 Y57.054 E2.05082 F1800.000
G1 X66.136 Y57.781 F4800.000
G1 X66.982 Y56.093 E2.14008 F1800.000
G1 X67.347 Y56.093 E2.15731
G1 X66.136 Y58.508 E2.28502
G1 X66.136 Y59.235 F4800.000
G1 X67.711 Y56.093 E2.45118 F1800.000
G1 X68.075 Y56.093 E2.46841
G1 X66.136 Y59.962 E2.67301
G1 X66.136 Y60.689 F4800.000
G1 X68.440 Y56.093 E2.91607 F1800.000
G1 X68.804 Y56.093 E2.93329
G1 X66.136 Y61.416 E3.21479
G1 X66.136 Y62.143 F4800.000
G1 X69.169 Y56.093 E3.53474 F1800.000
G1 X69.533 Y56.093 E3.55197
G1 X66.136 Y62.870 E3.91036
G1 X66.136 Y63.597 F4800.000
G1 X69.897 Y56.093 E4.30720 F1800.000
G1 X70.262 Y56.093 E4.32443
G1 X66.136 Y64.324 E4.75972
G1 X66.136 Y65.051 F4800.000
G1 X70.626 Y56.093 E5.23346 F1800.000
G1 X70.991 Y56.093 E5.25068
G1 X66.136 Y65.778 E5.76287
G1 X66.136 Y66.505 F4800.000
G1 X71.355 Y56.093 E6.31350 F1800.000
G1 X71.719 Y56.093 E6.33072
G1 X66.136 Y67.232 E6.91980
G1 X66.136 Y67.959 F4800.000
G1 X72.084 Y56.093 E7.54733 F1800.000
G1 X72.448 Y56.093 E7.56455
G1 X66.136 Y68.686 E8.23053
G1 X66.136 Y69.414 F4800.000
G1 X72.813 Y56.093 E8.93494 F1800.000
G1 X73.177 Y56.093 E8.95217
G1 X66.136 Y70.141 E9.69504
G1 X66.136 Y70.868 F4800.000
G1 X73.541 Y56.093 E10.47635 F1800.000
G1 X73.906 Y56.093 E10.49358
G1 X66.136 Y71.595 E11.31334
G1 X66.136 Y72.322 F4800.000
G1 X74.270 Y56.093 E12.17155 F1800.000
G1 X74.635 Y56.093 E12.18877
G1 X66.136 Y73.049 E13.08543
G1 X66.136 Y73.776 F4800.000
G1 X74.999 Y56.093 E14.02053 F1800.000
G1 X75.363 Y56.093 E14.03776
G1 X66.136 Y74.503 E15.01131
G1 X66.136 Y75.230 F4800.000
G1 X75.728 Y56.093 E16.02330 F1800.000
G1 X76.092 Y56.093 E16.04053
G1 X66.136 Y75.957 E17.09097
G1 X66.136 Y76.684 F4800.000
G1 X76.457 Y56.093 E18.17986 F1800.000
G1 X76.821 Y56.093 E18.19709
G1 X66.136 Y77.411 E19.32443
G1 X66.136 Y78.138 F4800.000
G1 X77.185 Y56.093 E20.49021 F1800.000
G1 X77.550 Y56.093 E20.50744
G1 X66.136 Y78.865 E21.71167
G1 X66.136 Y79.592 F4800.000
G1 X77.914 Y56.093 E22.95435 F1800.000
G1 X78.279 Y56.093 E22.97158
G1 X66.136 Y80.319 E24.25270
G1 X66.136 Y81.046 F4800.000
G1 X78.643 Y56.093 E25.57228 F1800.000
G1 X79.007 Y56.093 E25.58951
G1 X66.136 Y81.773 E26.94753
G1 X66.136 Y82.500 F4800.000
G1 X79.372 Y56.093 E28.34399 F1800.000
G1 X79.736 Y56.093 E28.36122
G1 X66.136 Y83.227 E29.79614
G1 X66.136 Y83.954 F4800.000
G1 X80.101 Y56.093 E31.26950 F1800.000
G1 X80.465 Y56.093 E31.28672
G1 X66.136 Y84.682 E32.79853
G1 X66.136 Y85.409 F4800.000
G1 X80.829 Y56.093 E34.34879 F1800.000
G1 X81.194 Y56.093 E34.36602
G1 X66.136 Y86.136 E35.95472
G1 X66.136 Y86.863 F4800.000
G1 X81.558 Y56.093 E37.58187 F1800.000
G1 X81.923 Y56.093 E37.59910
G1 X66.136 Y87.590 E39.26470
G1 X66.136 Y88.317 F4800.000
G1 X82.287 Y56.093 E40.96874 F1800.000
G1 X82.651 Y56.093 E40.98597
G1 X66.136 Y89.044 E42.72846
G1 X66.136 Y89.771 F4800.000
G1 X83.016 Y56.093 E44.50940 F1800.000
G1 X83.380 Y56.093 E44.52663
G1 X66.136 Y90.498 E46.34601
G1 X66.136 Y91.225 F4800.000
G1 X83.745 Y56.093 E48.20385 F1800.000
G1 X84.109 Y56.093 E48.22107
G1 X66.136 Y91.952 E50.11735
G1 X66.136 Y92.679 F4800.000
G1 X84.473 Y56.093 E52.05208 F1800.000
G1 X84.838 Y56.093 E52.06931
G1 X66.136 Y93.406 E54.04248
G1 X66.136 Y94.133 F4800.000
G1 X85.202 Y56.093 E56.05411 F1800.000
G1 X85.567 Y56.093 E56.07133
G1 X66.136 Y94.860 E58.12140
G1 X66.136 Y95.587 F4800.000
G1 X85.931 Y56.093 E60.20992 F1800.000
G1 X86.295 Y56.093 E60.22715
G1 X66.136 Y96.314 E62.35411
G1 X66.136 Y97.041 F4800.000
G1 X86.660 Y56.093 E64.51952 F1800.000
G1 X87.024 Y56.093 E64.53675
G1 X66.136 Y97.768 E66.74061
G1 X66.136 Y98.495 F4800.000
G1 X87.389 Y56.093 E68.98291 F1800.000
G1 X87.753 Y56.093 E69.00014
G1 X66.136 Y99.222 E71.28089
G1 X66.136 Y99.950 F4800.000
G1 X88.117 Y56.093 E73.60009 F1800.000
G1 X88.482 Y56.093 E73.61732
G1 X66.136 Y100.677 E75.97496
G1 X66.136 Y101.404 F4800.000
G1 X88.846 Y56.093 E78.37106 F1800.000
G1 X89.211 Y56.093 E78.38828
G1 X66.136 Y102.131 E80.82282
G1 X66.136 Y102.858 F4800.000
G1 X89.575 Y56.093 E83.29581 F1800.000
G1 X89.939 Y56.093 E83.31304
G1 X66.136 Y103.585 E85.82447
G1 X66.136 Y104.312 F4800.000
G1 X90.304 Y56.093 E88.37436 F1800.000
G1 X90.668 Y56.093 E88.39158
G1 X66.136 Y105.039 E90.97991
G1 X66.136 Y105.766 F4800.000
G1 X91.033 Y56.093 E93.60669 F1800.000
G1 X91.397 Y56.093 E93.62392
G1 X66.136 Y106.493 E96.28914
G1 X66.136 Y107.220 F4800.000
G1 X91.761 Y56.093 E98.99281 F1800.000
G1 X92.126 Y56.093 E99.01004
G1 X66.136 Y107.947 E101.75216
G1 X66.136 Y108.674 F4800.000
G1 X92.490 Y56.093 E104.53272 F1800.000
G1 X92.855 Y56.093 E104.54995
G1 X66.136 Y109.401 E107.36896
G1 X66.136 Y110.128 F4800.000
G1 X93.219 Y56.093 E110.22642 F1800.000
G1 X93.583 Y56.093 E110.24365
G1 X66.136 Y110.855 E113.13955
G1 X66.136 Y111.582 F4800.000
G1 X93.948 Y56.093 E116.07391 F1800.000
G1 X94.312 Y56.093 E116.09114
G1 X66.136 Y112.309 E119.06394
G1 X66.136 Y113.036 F4800.000
G1 X94.677 Y56.093 E122.07518 F1800.000
G1 X95.041 Y56.093 E122.09241
G1 X66.136 Y113.763 E125.14211
G1 X66.136 Y114.490 F4800.000
G1 X95.405 Y56.093 E128.23025 F1800.000
G1 X95.770 Y56.093 E128.24748
G1 X66.136 Y115.218 E131.37407
G1 X66.136 Y115.945 F4800.000
G1 X96.134 Y56.093 E134.53910 F1800.000
G1 X96.499 Y56.093 E134.55633
G1 X66.136 Y116.672 E137.75981
G1 X66.136 Y117.399 F4800.000
G1 X96.863 Y56.093 E141.00174 F1800.000
G1 X97.227 Y56.093 E141.01897
G1 X66.136 Y118.126 E144.29935
G1 X66.136 Y118.853 F4800.000
G1 X97.592 Y56.093 E147.61817 F1800.000
G1 X97.956 Y56.093 E147.63540
G1 X66.136 Y119.580 E150.99267
G1 X66.136 Y120.307 F4800.000
G1 X98.320 Y56.093 E154.38839 F1800.000
G1 X98.685 Y56.093 E154.40562
G1 X66.136 Y121.034 E157.83979
G1 X66.136 Y121.761 F4800.000
G1 X99.049 Y56.093 E161.31240 F1800.000
G1 X99.414 Y56.093 E161.32963
G1 X66.136 Y122.488 E164.84069
G1 X66.136 Y123.215 F4800.000
G1 X99.778 Y56.093 E168.39020 F1800.000
G1 X100.142 Y56.093 E168.40743
G1 X66.136 Y123.942 E171.99538
G1 X66.136 Y124.669 F4800.000
G1 X100.507 Y56.093 E175.62178 F1800.000
G1 X100.871 Y56.093 E175.63901
G1 X66.136 Y125.396 E179.30386
G1 X66.136 Y126.123 F4800.000
G1 X101.236 Y56.093 E183.00716 F1800.000
G1 X101.600 Y56.093 E183.02438
G1 X66.136 Y126.850 E186.76613
G1 X66.136 Y127.577 F4800.000
G1 X101.964 Y56.093 E190.54632 F1800.000
G1 X102.329 Y56.093 E190.56355
G1 X66.136 Y128.304 E194.38218
G1 X66.136 Y129.031 F4800.000
G1 X102.693 Y56.093 E198.23927 F1800.000
G1 X103.058 Y56.093 E198.25650
G1 X66.136 Y129.758 E202.15203
G1 X66.136 Y130.485 F4800.000
G1 X103.422 Y56.093 E206.08601 F1800.000
G1 X103.786 Y56.093 E206.10324
G1 X66.136 Y131.213 E210.07566
G1 X66.136 Y131.940 F4800.000
G1 X104.151 Y56.093 E214.08654 F1800.000
G1 X104.515 Y56.093 E214.10376
G1 X66.136 Y132.667 E218.15309
G1 X66.136 Y133.394 F4800.000
G1 X104.880 Y56.093 E222.24085 F1800.000
G1 X105.244 Y56.093 E222.25808
G1 X66.136 Y134.121 E226.38430
G1 X66.136 Y134.848 F4800.000
G1 X105.608 Y56.093 E230.54896 F1800.000
G1 X105.973 Y56.093 E230.56619
G1 X66.136 Y135.575 E234.76930
G1 X66.136 Y136.302 F4800.000
G1 X106.337 Y56.093 E239.01085 F1800.000
G1 X106.702 Y56.093 E239.02808
G1 X66.136 Y137.029 E243.30808
G1 X66.136 Y137.756 F4800.000
G1 X107.066 Y56.093 E247.62653 F1800.000
G1 X107.430 Y56.093 E247.64376
G1 X66.136 Y138.483 E252.00066
G1 X66.136 Y139.210 F4800.000
G1 X107.795 Y56.093 E256.39601 F1800.000
G1 X108.159 Y56.093 E256.41323
G1 X66.136 Y139.937 E260.84703
G1 X66.136 Y140.664 F4800.000
G1 X108.524 Y56.093 E265.31927 F1800.000
G1 X108.888 Y56.093 E265.33649
G1 X66.136 Y141.391 E269.84718
G1 X66.136 Y142.118 F4800.000
G1 X109.252 Y56.093 E274.39631 F1800.000
G1 X109.617 Y56.093 E274.41354
G1 X66.136 Y142.845 E279.00112
G1 X66.136 Y143.572 F4800.000
G1 X109.981 Y56.093 E283.62715 F1800.000
G1 X110.346 Y56.093 E283.64438
G1 X66.333 Y143.907 E288.28812
G1 X66.697 Y143.907 E288.30534
G1 X110.710 Y56.093 E292.94908
G1 X111.074 Y56.093 E292.96631
G1 X67.062 Y143.907 E297.61005
G1 X67.426 Y143.907 E297.62727
G1 X111.439 Y56.093 E302.27101
G1 X111.803 Y56.093 E302.28824
G1 X67.790 Y143.907 E306.93198
G1 X68.155 Y143.907 E306.94920
G1 X112.168 Y56.093 E311.59294
G1 X112.532 Y56.093 E311.61017
G1 X68.519 Y143.907 E316.25391
G1 X68.884 Y143.907 E316.27114
G1 X112.896 Y56.093 E320.91487
G1 X113.261 Y56.093 E320.93210
G1 X69.248 Y143.907 E325.57584
G1 X69.612 Y143.907 E325.59307
G1 X113.625 Y56.093 E330.23681
G1 X113.990 Y56.093 E330.25403
G1 X69.977 Y143.907 E334.89777
G1 X70.341 Y143.907 E334.91500
G1 X114.354 Y56.093 E339.55874
G1 X114.718 Y56.093 E339.57596
G1 X70.706 Y143.907 E344.21970
G1 X71.070 Y143.907 E344.23693
G1 X115.083 Y56.093 E348.88067
G1 X115.447 Y56.093 E348.89789
G1 X71.434 Y143.907 E353.54163
G1 X71.799 Y143.907 E353.55886
G1 X115.812 Y56.093 E358.20260
G1 X116.176 Y56.093 E358.21983
G1 X72.163 Y143.907 E362.86356
G1 X72.528 Y143.907 E362.88079
G1 X116.540 Y56.093 E367.52453
G1 X116.905 Y56.093 E367.54176
G1 X72.892 Y143.907 E372.18549
G1 X73.256 Y143.907 E372.20272
G1 X117.269 Y56.093 E376.84646
G1 X117.634 Y56.093 E376.86369
G1 X73.621 Y143.907 E381.50743
G1 X73.985 Y143.907 E381.52465
G1 X117.998 Y56.093 E386.16839
G1 X118.362 Y56.093 E386.18562
G1 X74.350 Y143.907 E390.82936
G1 X74.714 Y143.907 E390.84658
G1 X118.727 Y56.093 E395.49032
G1 X119.091 Y56.093 E395.50755
G1 X75.078 Y143.907 E400.15129
G1 X75.443 Y143.907 E400.16851
G1 X119.456 Y56.093 E404.81225
G1 X119.820 Y56.093 E404.82948
G1 X75.807 Y143.907 E409.47322
G1 X76.172 Y143.907 E409.49045
G1 X120.184 Y56.093 E414.13418
G1 X120.549 Y56.093 E414.15141
G1 X76.536 Y143.907 E418.79515
G1 X76.900 Y143.907 E418.81238
G1 X120.913 Y56.093 E423.45612
G1 X121.278 Y56.093 E423.47334
G1 X77.265 Y143.907 E428.11708
G1 X77.629 Y143.907 E428.13431
G1 X121.642 Y56.093 E432.77805
G1 X122.006 Y56.093 E432.79527
G1 X77.994 Y143.907 E437.43901
G1 X78.358 Y143.907 E437.45624
G1 X122.371 Y56.093 E442.09998
G1 X122.735 Y56.093 E442.11720
G1 X78.722 Y143.907 E446.76094
G1 X79.087 Y143.907 E446.77817
G1 X123.100 Y56.093 E451.42191
G1 X123.464 Y56.093 E451.43914
G1 X79.451 Y143.907 E456.08287
G1 X79.816 Y143.907 E456.10010
G1 X123.828 Y56.093 E460.74384
G1 X124.193 Y56.093 E460.76107
G1 X80.180 Y143.907 E465.40480
G1 X80.544 Y143.907 E465.42203
G1 X124.557 Y56.093 E470.06577
G1 X124.922 Y56.093 E470.08300
G1 X80.909 Y143.907 E474.72674
G1 X81.273 Y143.907 E474.74396
G1 X125.286 Y56.093 E479.38770
G1 X125.650 Y56.093 E479.40493
G1 X81.637 Y143.907 E484.04867
G1 X82.002 Y143.907 E484.06589
G1 X126.015 Y56.093 E488.70963
G1 X126.379 Y56.093 E488.72686
G1 X82.366 Y143.907 E493.37060
G1 X82.731 Y143.907 E493.38782
G1 X126.744 Y56.093 E498.03156
G1 X127.108 Y56.093 E498.04879
G1 X83.095 Y143.907 E502.69253
G1 X83.459 Y143.907 E502.70976
G1 X127.472 Y56.093 E507.35349
G1 X127.837 Y56.093 E507.37072
G1 X83.824 Y143.907 E512.01446
G1 X84.188 Y143.907 E512.03169
G1 X128.201 Y56.093 E516.67543
G1 X128.566 Y56.093 E516.69265
G1 X84.553 Y143.907 E521.33639
G1 X84.917 Y143.907 E521.35362
G1 X128.930 Y56.093 E525.99736
G1 X129.294 Y56.093 E526.01458
G1 X85.281 Y143.907 E530.65832
G1 X85.646 Y143.907 E530.67555
G1 X129.659 Y56.093 E535.31929
G1 X130.023 Y56.093 E535.33651
G1 X86.010 Y143.907 E539.98025
G1 X86.375 Y143.907 E539.99748
G1 X130.388 Y56.093 E544.64122
G1 X130.752 Y56.093 E544.65845
G1 X86.739 Y143.907 E549.30218
G1 X87.103 Y143.907 E549.31941
G1 X131.116 Y56.093 E553.96315
G1 X131.481 Y56.093 E553.98038
G1 X87.468 Y143.907 E558.62411
G1 X87.832 Y143.907 E558.64134
G1 X131.845 Y56.093 E563.28508
G1 X132.210 Y56.093 E563.30231
G1 X88.197 Y143.907 E567.94605
G1 X88.561 Y143.907 E567.96327
G1 X132.574 Y56.093 E572.60701
G1 X132.938 Y56.093 E572.62424
G1 X88.925 Y143.907 E577.26798
G1 X89.290 Y143.907 E577.28520
G1 X133.303 Y56.093 E581.92894
G1 X133.667 Y56.093 E581.94617
G1 X89.654 Y143.907 E586.58991
G1 X90.019 Y143.907 E586.60713
G1 X133.864 Y56.427 E591.23318
G1 X133.864 Y57.154 F4800.000
G1 X90.383 Y143.907 E595.82077 F1800.000
G1 X90.747 Y143.907 E595.83800
G1 X133.864 Y57.882 E600.38715
G1 X133.864 Y58.609 F4800.000
G1 X91.112 Y143.907 E604.89785 F1800.000
G1 X91.476 Y143.907 E604.91507
G1 X133.864 Y59.336 E609.38733
G1 X133.864 Y60.063 F4800.000
G1 X91.841 Y143.907 E613.82113 F1800.000
G1 X92.205 Y143.907 E613.83836
G1 X133.864 Y60.790 E618.23372
G1 X133.864 Y61.517 F4800.000
G1 X92.569 Y143.907 E622.59063 F1800.000
G1 X92.934 Y143.907 E622.60786
G1 X133.864 Y62.244 E626.92632
G1 X133.864 Y62.971 F4800.000
G1 X93.298 Y143.907 E631.20634 F1800.000
G1 X93.663 Y143.907 E631.22356
G1 X133.864 Y63.698 E635.46513
G1 X133.864 Y64.425 F4800.000
G1 X94.027 Y143.907 E639.66826 F1800.000
G1 X94.391 Y143.907 E639.68548
G1 X133.864 Y65.152 E643.85016
G1 X133.864 Y65.879 F4800.000
G1 X94.756 Y143.907 E647.97639 F1800.000
G1 X95.120 Y143.907 E647.99362
G1 X133.864 Y66.606 E652.08140
G1 X133.864 Y67.333 F4800.000
G1 X95.485 Y143.907 E656.13073 F1800.000
G1 X95.849 Y143.907 E656.14796
G1 X133.864 Y68.060 E660.15885
G1 X133.864 Y68.787 F4800.000
G1 X96.213 Y143.907 E664.13129 F1800.000
G1 X96.578 Y143.907 E664.14851
G1 X133.864 Y69.514 E668.08251
G1 X133.864 Y70.241 F4800.000
G1 X96.942 Y143.907 E671.97805 F1800.000
G1 X97.307 Y143.907 E671.99528
G1 X133.864 Y70.968 E675.85238
G1 X133.864 Y71.695 F4800.000
G1 X97.671 Y143.907 E679.67103 F1800.000
G1 X98.035 Y143.907 E679.68826
G1 X133.864 Y72.422 E683.46846
G1 X133.864 Y73.149 F4800.000
G1 X98.400 Y143.907 E687.21022 F1800.000
G1 X98.764 Y143.907 E687.22744
G1 X133.864 Y73.877 E690.93075
G1 X133.864 Y74.604 F4800.000
G1 X99.129 Y143.907 E694.59562 F1800.000
G1 X99.493 Y143.907 E694.61284
G1 X133.864 Y75.331 E698.23926
G1 X133.864 Y76.058 F4800.000
G1 X99.857 Y143.907 E701.82723 F1800.000
G1 X100.222 Y143.907 E701.84446
G1 X133.864 Y76.785 E705.39398
G1 X133.864 Y77.512 F4800.000
G1 X100.586 Y143.907 E708.90505 F1800.000
G1 X100.951 Y143.907 E708.92228
G1 X133.864 Y78.239 E712.39491
G1 X133.864 Y78.966 F4800.000
G1 X101.315 Y143.907 E715.82909 F1800.000
G1 X101.679 Y143.907 E715.84631
G1 X133.864 Y79.693 E719.24205
G1 X133.864 Y80.420 F4800.000
G1 X102.044 Y143.907 E722.59933 F1800.000
G1 X102.408 Y143.907 E722.61656
G1 X133.864 Y81.147 E725.93540
G1 X133.864 Y81.874 F4800.000
G1 X102.773 Y143.907 E729.21579 F1800.000
G1 X103.137 Y143.907 E729.23302
G1 X133.864 Y82.601 E732.47496
G1 X133.864 Y83.328 F4800.000
