; generated by Slic3r 1.2.9 on 2017-11-05 at 19:51:59

; external perimeters extrusion width = 0.40mm
; perimeters extrusion width = 0.48mm
; infill extrusion width = 0.48mm
; solid infill extrusion width = 0.48mm
; top infill extrusion width = 0.48mm

M107
M104 S200 ; set temperature
G28 ; home all axes

M109 S200 ; wait for temperature to be reached
G21 ; set units to millimeters
G90 ; use absolute coordinates
M82 ; use absolute distances for extrusion
G92 E0
G1 Z0.350 F3000.000
G1 E-2.00000 F2400.00000
G92 E0
G1 X60.281 Y49.704 F3000.000
G1 E2.00000 F2400.00000
G1 X62.666 Y48.038 E2.26448 F1800.000
G1 X65.413 Y47.082 E2.52895
G1 X67.500 Y46.875 E2.71967
G1 X132.500 Y46.875 E8.63009
G1 X135.381 Y47.273 E8.89457
G1 X138.047 Y48.438 E9.15904 F1800.000
G1 X140.296 Y50.281 E9.42352
G1 X141.962 Y52.666 E9.68800
G1 X142.918 Y55.413 E9.95247
G1 X143.125 Y57.500 E10.14319
G1 X143.125 Y142.500 E17.87220
G1 X142.727 Y145.381 E18.13668
G1 X141.562 Y148.047 E18.40115
G1 X139.719 Y150.296 E18.66563
G1 X137.334 Y151.962 E18.93011
G1 X134.587 Y152.918 E19.19459
G1 X132.500 Y153.125 E19.38530
G1 X67.500 Y153.125 E25.29572
G1 X64.619 Y152.727 E25.56020
G1 X61.953 Y151.562 E25.82467
G1 X59.704 Y149.719 E26.08915
G1 X58.038 Y147.334 E26.35363
G1 X57.082 Y144.587 E26.61810
G1 X56.875 Y142.500 E26.80882
G1 X56.875 Y57.500 E34.53783
G1 X57.273 Y54.619 E34.80231
G1 X58.438 Y51.953 E35.06678
G1 X60.243 Y49.750 E35.32581
G1 E33.32581 F2400.00000
G92 E0
G1 X67.188 Y57.371 F3000.000
G1 E2.00000 F2400.00000
G1 X67.371 Y57.188 E2.02354 F1800.000
G1 X132.629 Y57.188 E7.95749
G1 X132.812 Y57.371 E7.98103
G1 X132.812 Y142.629 E15.73358
G1 X132.629 Y142.812 E15.75712
G1 X67.371 Y142.812 E21.69108
G1 X67.188 Y142.629 E21.71461
G1 X67.188 Y57.431 E29.46171
G1 E27.46171 F2400.00000
G92 E0
G1 X132.150 Y142.150 F3000.000
G1 E2.00000 F2400.00000
G1 X67.850 Y142.150 E7.84677 F1800.000
G1 X67.850 Y57.850 E15.51214
G1 X132.150 Y57.850 E21.35891
G1 X132.150 Y142.090 E29.01882
G1 X131.804 Y141.950 F3000.000
G1 X131.525 Y141.525 F3000.000
G1 X68.475 Y141.525 E34.75195 F1800.000
G1 X68.475 Y58.475 E42.30367
G1 X131.525 Y58.475 E48.03680
G1 X131.525 Y141.465 E55.58306
G1 X130.645 Y60.615 F3000.000
G1 X130.104 Y59.902 E55.66440 F1800.000
G1 X129.390 Y59.354 E55.74628
G1 X129.476 Y59.100 E55.77071
G1 X130.900 Y59.100 E55.90017
G1 X130.900 Y60.529 E56.03016
G1 X130.702 Y60.596 E56.04921
G1 X129.649 Y61.370 F3000.000
G1 X129.827 Y61.605 E56.07599 F1800.000
G1 X130.201 Y62.508 E56.16491
G1 X130.331 Y63.500 E56.25586
G1 X130.201 Y64.492 E56.34681
G1 X129.818 Y65.416 E56.43776
G1 X129.209 Y66.209 E56.52871
G1 X128.416 Y66.818 E56.61966
G1 X127.492 Y67.201 E56.71060
G1 X126.500 Y67.331 E56.80155
G1 X125.508 Y67.201 E56.89250
G1 X124.584 Y66.818 E56.98345
G1 X123.790 Y66.209 E57.07449
G1 X123.173 Y65.395 E57.16731
G1 X122.799 Y64.492 E57.25623
G1 X122.668 Y63.499 E57.34728
G1 X122.808 Y62.488 E57.44009
G1 X123.182 Y61.584 E57.52901
G1 X123.791 Y60.791 E57.61996
G1 X124.584 Y60.182 E57.71091
G1 X125.508 Y59.799 E57.80186
G1 X126.478 Y59.671 E57.89078 F1800.000
G1 X127.491 Y59.799 E57.98360
G1 X128.416 Y60.182 E58.07464
G1 X129.210 Y60.791 E58.16568
G1 X129.613 Y61.322 E58.22626
G1 X129.941 Y61.333 F3000.000
G1 X130.147 Y60.993 F3000.000
G1 X130.373 Y61.291 E58.26035 F1800.000
G1 X130.810 Y62.345 E58.36407
G1 X130.962 Y63.500 E58.46998
G1 X130.810 Y64.655 E58.57589
G1 X130.364 Y65.731 E58.68179
G1 X129.655 Y66.655 E58.78771
G1 X128.731 Y67.364 E58.89361
G1 X127.655 Y67.810 E58.99952
G1 X126.500 Y67.962 E59.10543
G1 X125.345 Y67.810 E59.21134
G1 X124.269 Y67.364 E59.31725
G1 X123.343 Y66.653 E59.42343
G1 X122.627 Y65.709 E59.53120
G1 X122.190 Y64.655 E59.63492
G1 X122.038 Y63.497 E59.74109
G1 X122.200 Y62.323 E59.84887
G1 X122.636 Y61.269 E59.95258
G1 X123.345 Y60.345 E60.05849
G1 X124.269 Y59.636 E60.16440
G1 X125.345 Y59.190 E60.27031
G1 X126.476 Y59.041 E60.37403 F1800.000
G1 X127.652 Y59.189 E60.48180
G1 X128.731 Y59.636 E60.58798
G1 X129.657 Y60.347 E60.69415
G1 X130.111 Y60.945 E60.76239
G1 X130.646 Y66.390 F3000.000
G1 X130.900 Y66.476 E60.78682 F1800.000
G1 X130.900 Y133.524 E66.88339
G1 X130.646 Y133.610 E66.90782
G1 X130.101 Y132.899 E66.98926
G1 X129.046 Y132.090 E67.11013
G1 X127.813 Y131.580 E67.23144
G1 X126.474 Y131.411 E67.35417
G1 X125.182 Y131.581 E67.47268
G1 X123.954 Y132.090 E67.59355
G1 X122.899 Y132.899 E67.71442
G1 X122.090 Y133.954 E67.83529
G1 X121.581 Y135.182 E67.95616
G1 X121.408 Y136.500 E68.07703
G1 X121.581 Y137.818 E68.19790
G1 X122.090 Y139.046 E68.31877
G1 X122.899 Y140.101 E68.43964
G1 X123.610 Y140.646 E68.52108
G1 X123.524 Y140.900 E68.54551
G1 X76.476 Y140.900 E72.82349
G1 X76.390 Y140.646 E72.84792
G1 X77.101 Y140.101 E72.92936
G1 X77.910 Y139.046 E73.05023
G1 X78.418 Y137.818 E73.17110
G1 X78.592 Y136.500 E73.29197
G1 X78.418 Y135.182 E73.41284
G1 X77.910 Y133.954 E73.53371
G1 X77.101 Y132.899 E73.65458
G1 X76.046 Y132.090 E73.77545
G1 X74.818 Y131.581 E73.89633
G1 X73.500 Y131.408 E74.01720
G1 X72.208 Y131.578 E74.13570
G1 X70.958 Y132.087 E74.25844
G1 X69.899 Y132.899 E74.37975
G1 X69.354 Y133.610 E74.46118
G1 X69.100 Y133.524 E74.48561
G1 X69.100 Y66.476 E80.58218
G1 X69.354 Y66.390 E80.60661
G1 X69.899 Y67.101 E80.68805
G1 X70.954 Y67.910 E80.80892
G1 X72.182 Y68.418 E80.92979
G1 X73.500 Y68.592 E81.05066
G1 X74.818 Y68.418 E81.17154
G1 X76.046 Y67.910 E81.29241
G1 X77.104 Y67.098 E81.41371
G1 X77.920 Y66.022 E81.53645
G1 X78.418 Y64.818 E81.65496
G1 X78.592 Y63.500 E81.77583
G1 X78.418 Y62.182 E81.89670
G1 X77.910 Y60.954 E82.01757
G1 X77.101 Y59.899 E82.13844
G1 X76.390 Y59.354 E82.21988
G1 X76.476 Y59.100 E82.24431
G1 X123.524 Y59.100 E86.52229
G1 X123.610 Y59.354 E86.54672
G1 X122.899 Y59.899 E86.62815
G1 X122.090 Y60.954 E86.74903
G1 X121.591 Y62.158 E86.86753
G1 X121.407 Y63.495 E86.99027
G1 X121.581 Y64.818 E87.11157
G1 X122.080 Y66.022 E87.23008
G1 X122.896 Y67.098 E87.35282
G1 X123.954 Y67.910 E87.47412
G1 X125.182 Y68.418 E87.59499
G1 X126.500 Y68.592 E87.71587
G1 X127.818 Y68.418 E87.83674
G1 X129.046 Y67.910 E87.95761
G1 X130.101 Y67.101 E88.07848
G1 X130.609 Y66.438 E88.15446
G1 E86.15446 F2400.00000
G92 E0
G1 X77.331 Y63.500 F3000.000
G1 E2.00000 F2400.00000
G1 X77.201 Y64.492 E2.09095 F1800.000
G1 X76.827 Y65.395 E2.17987
G1 X76.210 Y66.209 E2.27269
G1 X75.416 Y66.818 E2.36373
G1 X74.492 Y67.201 E2.45468
G1 X73.500 Y67.331 E2.54563
G1 X72.508 Y67.201 E2.63658
G1 X71.584 Y66.818 E2.72752
G1 X70.791 Y66.209 E2.81847
G1 X70.182 Y65.416 E2.90942
G1 X69.799 Y64.492 E3.00037
G1 X69.669 Y63.500 E3.09132
G1 X69.799 Y62.508 E3.18227
G1 X70.182 Y61.584 E3.27322
G1 X70.791 Y60.791 E3.36416
G1 X71.584 Y60.182 E3.45511
G1 X72.508 Y59.799 E3.54606
G1 X73.478 Y59.671 E3.63499 F1800.000
G1 X74.491 Y59.799 E3.72780
G1 X75.416 Y60.182 E3.81884
G1 X76.209 Y60.791 E3.90979
G1 X76.818 Y61.584 E4.00074
G1 X77.201 Y62.508 E4.09169
G1 X77.324 Y63.441 E4.17718
G1 X77.669 Y63.715 F3000.000
G1 X77.951 Y63.582 F3000.000
G1 X77.810 Y64.655 E4.27561 F1800.000
G1 X77.373 Y65.709 E4.37933
G1 X76.657 Y66.653 E4.48710
G1 X75.731 Y67.364 E4.59328
G1 X74.655 Y67.810 E4.69918
G1 X73.500 Y67.962 E4.80509
G1 X72.345 Y67.810 E4.91100
G1 X71.269 Y67.364 E5.01691
G1 X70.345 Y66.655 E5.12282
G1 X69.636 Y65.731 E5.22873
G1 X69.190 Y64.655 E5.33464
G1 X69.038 Y63.500 E5.44055
G1 X69.190 Y62.345 E5.54646
G1 X69.636 Y61.269 E5.65237
G1 X70.345 Y60.345 E5.75828
G1 X71.269 Y59.636 E5.86419
G1 X72.345 Y59.190 E5.97010
G1 X73.476 Y59.041 E6.07382 F1800.000
G1 X74.652 Y59.189 E6.18159
G1 X75.731 Y59.636 E6.28777
G1 X76.655 Y60.345 E6.39368
G1 X77.364 Y61.269 E6.49959
G1 X77.810 Y62.345 E6.60550
G1 X77.959 Y63.522 E6.71336
G1 E4.71336 F2400.00000
G92 E0
G1 X70.610 Y59.354 F3000.000
G1 E2.00000 F2400.00000
G1 X69.899 Y59.899 E2.08144 F1800.000
G1 X69.354 Y60.610 E2.16287
G1 X69.100 Y60.524 E2.18731
G1 X69.100 Y59.100 E2.31677
G1 X70.524 Y59.100 E2.44624
G1 X70.591 Y59.297 E2.46521
G1 E0.46521 F2400.00000
G92 E0
G1 X69.354 Y139.390 F3000.000
G1 E2.00000 F2400.00000
G1 X69.899 Y140.101 E2.08144 F1800.000
G1 X70.610 Y140.646 E2.16287
G1 X70.524 Y140.900 E2.18730
G1 X69.100 Y140.900 E2.31677
G1 X69.100 Y139.476 E2.44624
G1 X69.297 Y139.409 E2.46521
G1 X70.346 Y138.629 F3000.000
G1 X70.182 Y138.416 E2.48968 F1800.000
G1 X69.799 Y137.491 E2.58073
G1 X69.671 Y136.478 E2.67354
G1 X69.799 Y135.508 E2.76246
G1 X70.182 Y134.584 E2.85341
G1 X70.791 Y133.791 E2.94436
G1 X71.585 Y133.181 E3.03541
G1 X72.530 Y132.796 E3.12822
G1 X73.500 Y132.669 E3.21714 F1800.000
G1 X74.492 Y132.799 E3.30809
G1 X75.416 Y133.182 E3.39904
G1 X76.209 Y133.791 E3.48999
G1 X76.818 Y134.584 E3.58094
G1 X77.201 Y135.508 E3.67189
G1 X77.331 Y136.500 E3.76283
G1 X77.201 Y137.492 E3.85378
G1 X76.818 Y138.416 E3.94473
G1 X76.209 Y139.209 E4.03568
G1 X75.416 Y139.818 E4.12663
G1 X74.492 Y140.201 E4.21758
G1 X73.500 Y140.331 E4.30853
G1 X72.530 Y140.204 E4.39745
G1 X71.585 Y139.819 E4.49026
G1 X70.791 Y139.209 E4.58131
G1 X70.382 Y138.677 E4.64233
G1 X70.079 Y138.664 F3000.000
G1 X69.850 Y139.010 F3000.000
G1 X69.636 Y138.731 E4.67428 F1800.000
G1 X69.189 Y137.652 E4.78046
G1 X69.041 Y136.476 E4.88823
G1 X69.190 Y135.345 E4.99195
G1 X69.636 Y134.269 E5.09786
G1 X70.345 Y133.345 E5.20377
G1 X71.271 Y132.634 E5.30994
G1 X72.369 Y132.187 E5.41772
G1 X73.500 Y132.038 E5.52143 F1800.000
G1 X74.655 Y132.190 E5.62734
G1 X75.731 Y132.636 E5.73325
G1 X76.655 Y133.345 E5.83916
G1 X77.364 Y134.269 E5.94507
G1 X77.810 Y135.345 E6.05098
G1 X77.962 Y136.500 E6.15689
G1 X77.810 Y137.655 E6.26280
G1 X77.364 Y138.731 E6.36871
G1 X76.655 Y139.655 E6.47462
G1 X75.731 Y140.364 E6.58053
G1 X74.655 Y140.810 E6.68644
G1 X73.500 Y140.962 E6.79235
G1 X72.369 Y140.813 E6.89607
G1 X71.271 Y140.366 E7.00384
G1 X70.345 Y139.655 E7.11001
G1 X69.886 Y139.057 E7.17852
G1 E5.17852 F2400.00000
G92 E0
G1 X129.390 Y140.646 F3000.000
G1 E2.00000 F2400.00000
G1 X130.101 Y140.101 E2.08144 F1800.000
G1 X130.646 Y139.390 E2.16288
G1 X130.900 Y139.476 E2.18731
G1 X130.900 Y140.900 E2.31677
G1 X129.476 Y140.900 E2.44624
G1 X129.409 Y140.703 E2.46521
G1 X128.629 Y139.654 F3000.000
G1 X128.416 Y139.818 E2.48968 F1800.000
G1 X127.492 Y140.201 E2.58063
G1 X126.500 Y140.331 E2.67158
G1 X125.508 Y140.201 E2.76253
G1 X124.584 Y139.818 E2.85348
G1 X123.791 Y139.209 E2.94443
G1 X123.182 Y138.416 E3.03537
G1 X122.799 Y137.492 E3.12632
G1 X122.669 Y136.500 E3.21727
G1 X122.799 Y135.508 E3.30822
G1 X123.182 Y134.584 E3.39917
G1 X123.791 Y133.791 E3.49012
G1 X124.584 Y133.182 E3.58107
G1 X125.508 Y132.799 E3.67201
G1 X126.478 Y132.671 E3.76094 F1800.000
G1 X127.491 Y132.799 E3.85375
G1 X128.416 Y133.182 E3.94480
G1 X129.209 Y133.791 E4.03574
G1 X129.818 Y134.584 E4.12669
G1 X130.201 Y135.508 E4.21764
G1 X130.331 Y136.500 E4.30859
G1 X130.201 Y137.492 E4.39954
G1 X129.818 Y138.416 E4.49049
G1 X129.209 Y139.209 E4.58144
G1 X128.677 Y139.618 E4.64246
G1 X128.664 Y139.921 F3000.000
G1 X129.010 Y140.150 F3000.000
G1 X128.731 Y140.364 E4.67441 F1800.000
G1 X127.655 Y140.810 E4.78032
G1 X126.500 Y140.962 E4.88623
G1 X125.345 Y140.810 E4.99214
G1 X124.269 Y140.364 E5.09805
G1 X123.345 Y139.655 E5.20396
G1 X122.636 Y138.731 E5.30987
G1 X122.190 Y137.655 E5.41578
G1 X122.038 Y136.500 E5.52169
G1 X122.190 Y135.345 E5.62760
G1 X122.636 Y134.269 E5.73351
G1 X123.345 Y133.345 E5.83942
G1 X124.269 Y132.636 E5.94533
G1 X125.345 Y132.190 E6.05123
G1 X126.476 Y132.041 E6.15495 F1800.000
G1 X127.652 Y132.189 E6.26272
G1 X128.731 Y132.636 E6.36890
G1 X129.655 Y133.345 E6.47481
G1 X130.364 Y134.269 E6.58072
G1 X130.810 Y135.345 E6.68663
G1 X130.962 Y136.500 E6.79254
G1 X130.810 Y137.655 E6.89845
G1 X130.364 Y138.731 E7.00436
G1 X129.655 Y139.655 E7.11027
G1 X129.057 Y140.114 E7.17877
G1 X129.142 Y140.886 F3000.000
G1 X127.756 Y141.161 E7.30723 F1800.000
G1 X127.287 Y141.193 E7.34996
G1 X125.713 Y141.193 F3000.000
G1 X125.244 Y141.161 E7.39269 F1800.000
G1 X123.858 Y140.886 E7.52115
G1 X130.886 Y139.142 F3000.000
G1 X131.161 Y137.756 E7.64961 F1800.000
G1 X131.193 Y137.287 E7.69234
G1 X131.193 Y135.713 F3000.000
G1 X131.161 Y135.244 E7.73507 F1800.000
G1 X130.886 Y133.858 E7.86353
G1 E5.86353 F2400.00000
G92 E0
G1 X76.142 Y140.886 F3000.000
G1 E2.00000 F2400.00000
G1 X74.756 Y141.161 E2.12846 F1800.000
G1 X74.287 Y141.193 E2.17119
G1 X72.713 Y141.193 F3000.000
G1 X72.270 Y141.163 E2.21157 F1800.000
G1 X70.858 Y140.887 E2.34237
G1 X69.114 Y139.142 F3000.000
G1 X68.838 Y137.752 E2.47119 F1800.000
G1 X68.807 Y137.275 E2.51469
G1 X68.807 Y135.713 F3000.000
G1 X68.839 Y135.244 E2.55741 F1800.000
G1 X69.114 Y133.858 E2.68588
G1 X69.114 Y66.142 F3000.000
G1 X68.839 Y64.756 E2.81434 F1800.000
G1 X68.807 Y64.287 E2.85706
G1 X68.807 Y62.713 F3000.000
G1 X68.839 Y62.244 E2.89979 F1800.000
G1 X69.114 Y60.858 E3.02825
G1 X70.858 Y59.114 F3000.000
G1 X72.244 Y58.839 E3.15672 F1800.000
G1 X72.713 Y58.807 E3.19944
G1 X74.275 Y58.807 F3000.000
G1 X74.752 Y58.838 E3.24294 F1800.000
G1 X76.142 Y59.114 E3.37176
G1 X78.120 Y60.428 F3000.000
G1 X130.522 Y112.830 E10.11679 F1800.000
G1 X130.522 Y111.946 E10.19730
G1 X78.054 Y59.478 E16.95076
G1 X78.939 Y59.478 E17.03127
G1 X130.522 Y111.061 E23.67087
G1 X130.522 Y110.176 E23.75138
G1 X79.824 Y59.478 E30.27711
G1 X80.708 Y59.478 E30.35763
G1 X130.522 Y109.292 E36.76950
G1 X130.522 Y108.407 E36.85001
G1 X81.593 Y59.478 E43.14802
G1 X82.477 Y59.478 E43.22854
G1 X130.522 Y107.523 E49.41269
G1 X130.522 Y106.638 E49.49320
G1 X83.362 Y59.478 E55.56349
G1 X84.247 Y59.478 E55.64400
G1 X130.522 Y105.753 E61.60043
G1 X130.522 Y104.869 E61.68094
G1 X85.131 Y59.478 E67.52351
G1 X86.016 Y59.478 E67.60402
G1 X130.522 Y103.984 E73.33273
G1 X130.522 Y103.100 E73.41324
G1 X86.900 Y59.478 E79.02809
G1 X87.785 Y59.478 E79.10860
G1 X130.522 Y102.215 E84.60959
G1 X130.522 Y101.331 E84.69010
G1 X88.669 Y59.478 E90.07723
G1 X89.554 Y59.478 E90.15774
G1 X130.522 Y100.446 E95.43100
G1 X130.522 Y99.561 E95.51151
G1 X90.439 Y59.478 E100.67092
G1 X91.323 Y59.478 E100.75143
G1 X130.522 Y98.677 E105.79697
G1 X130.522 Y97.792 E105.87748
G1 X92.208 Y59.478 E110.80917
G1 X93.092 Y59.478 E110.88968
G1 X130.522 Y96.908 E115.70750
G1 X130.522 Y96.023 E115.78801
G1 X93.977 Y59.478 E120.49197
G1 X94.861 Y59.478 E120.57248
G1 X130.522 Y95.139 E125.16258
G1 X130.522 Y94.254 E125.24309
G1 X95.746 Y59.478 E129.71933
G1 X96.631 Y59.478 E129.79984
G1 X130.522 Y93.369 E134.16222
G1 X130.522 Y92.485 E134.24273
G1 X97.515 Y59.478 E138.49124
G1 X98.400 Y59.478 E138.57176
G1 X130.522 Y91.600 E142.70641
G1 X130.522 Y90.716 E142.78692
G1 X99.284 Y59.478 E146.80772
G1 X100.169 Y59.478 E146.88823
G1 X130.522 Y89.831 E150.79516
G1 X130.522 Y88.946 E150.87567
G1 X101.054 Y59.478 E154.66874
G1 X101.938 Y59.478 E154.74925
G1 X130.522 Y88.062 E158.42847
G1 X130.522 Y87.177 E158.50898
G1 X102.823 Y59.478 E162.07433
G1 X103.707 Y59.478 E162.15484
G1 X130.522 Y86.293 E165.60633
G1 X130.522 Y85.408 E165.68684
G1 X104.592 Y59.478 E169.02447
G1 X105.476 Y59.478 E169.10498
G1 X130.522 Y84.524 E172.32875
G1 X130.522 Y83.639 E172.40926
G1 X106.361 Y59.478 E175.51916
G1 X107.246 Y59.478 E175.59968
G1 X130.522 Y82.754 E178.59572
G1 X130.522 Y81.870 E178.67623
G1 X108.130 Y59.478 E181.55842
G1 X109.015 Y59.478 E181.63893
G1 X130.522 Y80.985 E184.40725
G1 X130.522 Y80.101 E184.48776
G1 X109.899 Y59.478 E187.14222
G1 X110.784 Y59.478 E187.22274
G1 X130.522 Y79.216 E189.76334
G1 X130.522 Y78.332 E189.84385
G1 X111.668 Y59.478 E192.27059
G1 X112.553 Y59.478 E192.35110
G1 X130.522 Y77.447 E194.66398
G1 X130.522 Y76.562 E194.74449
G1 X113.438 Y59.478 E196.94351
G1 X114.322 Y59.478 E197.02402
G1 X130.522 Y75.678 E199.10918
G1 X130.522 Y74.793 E199.18969
G1 X124.227 Y68.498 E199.99994
G1 X121.502 Y65.773 F3000.000
G1 X115.207 Y59.478 E200.81020 F1800.000
G1 X116.091 Y59.478 E200.89071
G1 X121.143 Y64.530 E201.54097
G1 X121.036 Y63.539 E201.63174
G1 X116.976 Y59.478 E202.15437
G1 X117.861 Y59.478 E202.23488
G1 X121.143 Y62.761 E202.65743
G1 X121.284 Y62.017 E202.72634
G1 X118.745 Y59.478 E203.05314
G1 X119.630 Y59.478 E203.13365
G1 X121.543 Y61.392 E203.37994
G1 X121.815 Y60.779 E203.44097
